X:1
T:Bring Us In Good Ale
M:6/8
L:1/8
K:F
 z4 z G-| G2 B A2 F| A3/2- G/2F/2-E/2 D2 D| G2 B A2 F| E3- E2 D-| F2 F G2 G|\
 A2 A F3|G-B A G2 F| G6| G2 G A2 B| c2- B A2 G| B2 A F2 G| A3- A2 D|\
 F2 F G2 G| A2- A F2 F|G-B A G2 F| G3- G2 d| c2 B A2 G| F2 E D2 D|\
 F2 GF E2| D3- D2 D-| F2 F G2 G| A2 A F3|G-B A G2 F| G3- G2 z|
